X:1
T: With All My Heart
C:
R:Jig
Q:180
K:G
M:6/8
L:1/16
G2|:F4D2 D2E2D2|F4D2 D4G2|A4c2 B2A2G2|
|1A6 A4G2|F4D2 D2E2D2|F4D2 D4F2|G4B2 A2G2F2|G6 A4G2:|
|2A6 f4g2|a2g2f2 g2f2e2|f2e2d2 c2A2F2|G4B2 A2G2F2|G6 F4G2|
|:A4d2 d4e2|f4d2 c2A2G2|A4c2 B2A2G2|
|1A6 F4G2|A4d2 d4e2|f4d2 c2A2F2|G4B2 A2G2F2|G6 F4G2:|
|2A6 f4g2|a2g2f2 g2f2e2|f2e2d2 c2A2F2|G4B2 A2G2F2|G6 G4||
